{
  "compressionlevel": -1,
  "height": 9,
  "infinite": false,
  "layers": [
    {
      "draworder": "topdown",
      "id": 2,
      "name": "plan",
      "objects": [],
      "opacity": 1,
      "type": "objectgroup",
      "visible": true,
      "x": 0,
      "y": 0
    }
  ],
  "nextlayerid": 3,
  "nextobjectid": 1,
  "orientation": "orthogonal",
  "renderorder": "right-down",
  "tiledversion": "1.12.2",
  "tileheight": 80,
  "tilesets": [],
  "tilewidth": 80,
  "type": "map",
  "version": "1.11",
  "width": 16
}
