{ "compressionlevel":-1,
 "height":9,
 "infinite":false,
 "layers":[
        {
         "class":"fond",
         "id":3,
         "image":"..\/..\/..\/public\/assets\/decor\/fond-porte.webp",
         "imageheight":720,
         "imagewidth":1280,
         "locked":true,
         "name":"fond",
         "opacity":1,
         "type":"imagelayer",
         "visible":true,
         "x":0,
         "y":0
        }, 
        {
         "draworder":"topdown",
         "id":2,
         "name":"plan",
         "objects":[
                {
                 "height":138,
                 "id":1,
                 "name":"feuille_hache",
                 "opacity":1,
                 "rotation":0,
                 "type":"hotspot",
                 "visible":true,
                 "width":138,
                 "x":401.269810213265,
                 "y":467.964781843084
                }, 
                {
                 "height":224,
                 "id":2,
                 "name":"heros",
                 "opacity":1,
                 "rotation":0,
                 "type":"hotspot",
                 "visible":true,
                 "width":192,
                 "x":174.694971629818,
                 "y":408
                }, 
                {
                 "height":268,
                 "id":3,
                 "name":"porte",
                 "opacity":1,
                 "rotation":0,
                 "type":"hotspot",
                 "visible":true,
                 "width":195,
                 "x":877.36051818048,
                 "y":212.446341822464
                }, 
                {
                 "height":340,
                 "id":4,
                 "name":"renard",
                 "opacity":1,
                 "rotation":0,
                 "type":"hotspot",
                 "visible":true,
                 "width":276,
                 "x":570,
                 "y":247
                }, 
                {
                 "height":190,
                 "id":5,
                 "name":"pont",
                 "opacity":1,
                 "rotation":0,
                 "type":"exit",
                 "visible":true,
                 "width":96,
                 "x":59,
                 "y":349
                }, 
                {
                 "height":268,
                 "id":6,
                 "name":"village",
                 "opacity":1,
                 "rotation":0,
                 "type":"exit",
                 "visible":true,
                 "width":195,
                 "x":877.36051818048,
                 "y":212.446341822464
                }, 
                {
                 "height":220,
                 "id":8,
                 "name":"sol",
                 "opacity":1,
                 "rotation":0,
                 "type":"decor",
                 "visible":true,
                 "width":1280,
                 "x":0,
                 "y":500
                }, 
                {
                 "height":170,
                 "id":9,
                 "name":"nuages",
                 "opacity":1,
                 "rotation":0,
                 "type":"decor",
                 "visible":true,
                 "width":1280,
                 "x":0,
                 "y":40
                }, 
                {
                 "height":127.3423188152,
                 "id":12,
                 "name":"soleil",
                 "opacity":1,
                 "rotation":0,
                 "type":"decor",
                 "visible":true,
                 "width":131.984395574329,
                 "x":93.8569434883634,
                 "y":57.0233441521072
                }],
         "opacity":1,
         "type":"objectgroup",
         "visible":true,
         "x":0,
         "y":0
        }],
 "nextlayerid":4,
 "nextobjectid":13,
 "orientation":"orthogonal",
 "renderorder":"right-down",
 "tiledversion":"1.12.2",
 "tileheight":80,
 "tilesets":[],
 "tilewidth":80,
 "type":"map",
 "version":"1.11",
 "width":16
}