{ "compressionlevel":-1,
 "height":9,
 "infinite":false,
 "layers":[
        {
         "draworder":"topdown",
         "id":2,
         "name":"plan",
         "objects":[
                {
                 "height":200,
                 "id":1,
                 "name":"heros",
                 "opacity":1,
                 "rotation":0,
                 "type":"hotspot",
                 "visible":true,
                 "width":170,
                 "x":880,
                 "y":470
                }, 
                {
                 "height":250,
                 "id":2,
                 "name":"cheffe",
                 "opacity":1,
                 "rotation":0,
                 "type":"hotspot",
                 "visible":true,
                 "width":180,
                 "x":600,
                 "y":230
                }, 
                {
                 "height":140,
                 "id":3,
                 "name":"chat",
                 "opacity":1,
                 "rotation":0,
                 "type":"hotspot",
                 "visible":true,
                 "width":105,
                 "x":260,
                 "y":470
                }, 
                {
                 "height":252,
                 "id":4,
                 "name":"lune_chat",
                 "opacity":1,
                 "rotation":0,
                 "type":"hotspot",
                 "visible":true,
                 "width":150,
                 "x":382,
                 "y":358
                }, 
                {
                 "height":190,
                 "id":5,
                 "name":"trone",
                 "opacity":1,
                 "rotation":0,
                 "type":"exit",
                 "visible":true,
                 "width":96,
                 "x":1160,
                 "y":400
                }, 
                {
                 "height":250,
                 "id":6,
                 "name":"sol",
                 "opacity":1,
                 "rotation":0,
                 "type":"decor",
                 "visible":true,
                 "width":1280,
                 "x":0,
                 "y":470
                }, 
                {
                 "height":470,
                 "id":7,
                 "name":"mur",
                 "opacity":1,
                 "rotation":0,
                 "type":"decor",
                 "visible":true,
                 "width":1280,
                 "x":0,
                 "y":0
                }, 
                {
                 "height":140,
                 "id":8,
                 "name":"fourneau",
                 "opacity":1,
                 "rotation":0,
                 "type":"decor",
                 "visible":true,
                 "width":260,
                 "x":560,
                 "y":330
                }, 
                {
                 "height":240,
                 "id":9,
                 "name":"porte_trone",
                 "opacity":1,
                 "rotation":0,
                 "type":"decor",
                 "visible":true,
                 "width":150,
                 "x":1100,
                 "y":230
                }, 
                {
                 "height":0,
                 "id":10,
                 "name":"retour_chat",
                 "opacity":1,
                 "polyline":[
                       {
                        "x":0,
                        "y":0
                       }, 
                       {
                        "x":388,
                        "y":40
                       }, 
                       {
                        "x":888,
                        "y":-10
                       }],
                 "rotation":0,
                 "type":"chemin",
                 "visible":true,
                 "width":0,
                 "x":312,
                 "y":610
                }, 
                {
                 "height":0,
                 "id":11,
                 "name":"retour_lune_chat",
                 "opacity":1,
                 "polyline":[
                       {
                        "x":0,
                        "y":0
                       }, 
                       {
                        "x":303,
                        "y":60
                       }, 
                       {
                        "x":743,
                        "y":10
                       }],
                 "rotation":0,
                 "type":"chemin",
                 "visible":true,
                 "width":0,
                 "x":457,
                 "y":610
                }],
         "opacity":1,
         "type":"objectgroup",
         "visible":true,
         "x":0,
         "y":0
        }],
 "nextlayerid":3,
 "nextobjectid":12,
 "orientation":"orthogonal",
 "renderorder":"right-down",
 "tiledversion":"1.12.2",
 "tileheight":80,
 "tilesets":[],
 "tilewidth":80,
 "type":"map",
 "version":"1.11",
 "width":16
}